!!!!SEGMENT: pl-sa--400-a-viii-40--002-001_pugnani-gaetano--trio-in-d-andante-assai.krn
!!!cenid: 17xx:2024
!!!COM: Pugnani, Gaetano
!!!COM-rismid: pe30002608
!!!CDT: 1731/11/27-1798/07/15
!!!CNT: Italian
!!!OPR: Trio in D
!!!OTL: Andante assai
!!!OMV: 001
!!!PDT:
!!!AGN: Secular
!!!SMS-siglum: PL-SA
!!!SMS-shelfmark: 400/A VIII 40
!!!SMS-shelfwork: 002-001 M
!!!SMS-variant:
!!!SMS-altvar:
!!!NIFC-rismid: 1001104651
!!!URL-scan: http://bc.bdsandomierz.pl/dlibra/publication/1703/edition/1671/content
!!!ONB-nifc: UWAGA: No 2do. Części: 1. Andante assai, 2. Allegro
!!!key:
**kern	**kern	**dynam	**kern
*group1	*group1	*	*group1
*part3	*part2	*part2	*part1
*staff3	*staff2	*	*staff1
*Iempty	*Ivioln	*	*Ivioln
*I"Baſso.	*I"Violino 2do	*	*I"Violino 1mo
*clefF4	*clefG2	*	*clefG2
*k[f#c#]	*k[f#c#]	*	*k[f#c#]
*D:	*D:	*	*D:
*M2/4	*M2/4	*	*M2/4
*>[A,A,B,B]	*>[A,A,B,B]	*	*>[A,A,B,B]
*>A	*>A	*	*>A
!	!LO:TX:a:i:t=No//2do:rj	!	!LO:TX:a:i:t=NU 2edo:rj
!LO:TX:t=P:problem:brak partii	!LO:TX:a:i:t=Andante	!	!LO:TX:a:i:t=Andante Aſsai
8ryy	8r	.	8a/
=1	=1	=1	=1
2ryy	8d/L	.	16.f#/LL
.	.	.	32d/K
.	8e/	.	16.g/
.	.	.	32e/JJk
.	8f#/	.	16a\LL
.	.	.	16dd\
.	8e/J	.	16cc#\
.	.	.	16b\JJ
=2	=2	=2	=2
.	.	.	8qqb/
2ryy	8c#/L	.	16a\LL
.	.	.	16g#X\J
.	8B/	.	8a\J
*	*	*	*Xtuplet
.	8c#/	.	24r
.	.	.	24a/LL
.	.	.	24gn/
.	8d/J	.	24f#/
.	.	.	24e/
.	.	.	24d/JJ
=3	=3	=3	=3
2ryy	8e/L	.	16g\LL
.	.	.	16ee\
.	8d/	.	16f#\
.	.	.	16ff#\JJ
.	.	.	8qqff#/
.	8g/	.	16ee\KL
.	.	.	8dd\
.	8a/J	.	.
.	.	.	16cc#X\Jk
=4	=4	=4	=4
2ryy	16.f#/LL	.	8d/L
.	32d/K	.	.
.	16.g/	.	8e/
.	32e/JJk	.	.
!	!LO:TX:a:t=|:problem	!	!
.	16a\LL	.	8f#/
!	!LO:TX:a:t=|:problem	!	!
.	16dd\	.	.
!	!LO:TX:a:t=|:problem	!	!
.	16cc#\	.	8d/J
!	!LO:TX:a:t=|:problem	!	!
.	16b\JJ	.	.
=5	=5	=5	=5
.	8qqb/	.	.
2ryy	16.a\LL	.	8c#/L
.	32g#X\JK	.	.
.	8a\J	.	8B/J
*	*Xtuplet	*	*
.	24r	.	8c#/L
.	24a/LL	.	.
.	(<24gn/	.	.
.	24f#/	.	8d/J
.	24e/)	.	.
.	24d/JJ	.	.
=6	=6	=6	=6
2ryy	16g\LL	.	8e/L
.	16cc#\JJ	.	.
.	16r	.	8e/
.	16ee\	.	.
.	16ee\KL	.	8c#/
.	8gg\	.	.
.	.	.	8d/J
.	16ff#\Jk	.	.
!	!	!	!LO:LB:g=original
=7	=7	=7	=7
!	!LO:TX:a:t=|:problem	!	!
2ryy	8ff#\L	.	8a/L
!	!LO:TX:a:t=|:problem	!	!
.	8ee\J	.	16A/L
.	.	.	16B/JJ
!!mixed beam:problem
!	!	!	!LO:TX:t=P:problem:mixed beam
.	4r	.	8c#/L
.	.	.	8ee\J
=8	=8	=8	=8
2ryy	8d/L	.	16ff#\LL
.	.	.	16dd\J
.	16d/L	.	8ddT>\J
.	16e/JJ	.	.
*	*	*	*tuplet
!	!	!	!LO:TUP:a
.	8f#/L	.	24r
.	.	.	24dd\LL
.	.	.	24ee\
.	8d/J	.	24ff#\
.	.	.	24ee\
.	.	.	24dd\JJ
!	!LO:LB:g=original	!	!
=9	=9	=9	=9
2ryy	8c#/L	.	16ee\LL
.	.	.	16a\J
.	16A/L	.	8a\J
.	16B/JJ	.	.
*`	*	*	*Xtuplet
!!mixed beam:problem
!	!LO:TX:t=P:problem:mixed beam	!	!LO:TUP:a:problem:klamra łukowa
.	8c#/L	.	24r
.	.	.	24a\LL
.	.	.	24b\
.	8ee\J	.	24cc#\
.	.	.	24b\
.	.	.	24a\JJ
=10	=10	=10	=10
!!mixed beam:problem
!	!	!	!LO:TX:t=P:problem:mixed beam
2ryy	16ff#\LL	.	8dd\L
.	16dd\J	.	.
!	!LO:TX:t=P:problem:♮above	!	!
.	8ddn\J	.	16.d/L
.	.	.	32e/JJk
*	*tuplet	*	*
!	!LO:TUP:a:problem:bez klamry	!	!
.	24r	.	8f#/L
.	24dd\LL	.	.
.	24ee\	.	.
.	24ff#\	.	8d/J
.	24ee\	.	.
.	24dd\JJ	.	.
=11	=11	=11	=11
2ryy	16.ee\LL	.	8r
.	32a\JK	.	.
.	8aT>\J	.	16c#/LL
.	.	.	16B/JJ
*	*Xtuplet	*	*
!	!LO:TUP:a:problem:klamra łukowa	!	!
.	24r	.	8c#/L
.	24a\LL	.	.
.	24b\	.	.
.	24cc#\	.	8A/J
.	24dd\	.	.
.	24ee\JJ	.	.
=12	=12	=12	=12
!	!LO:TUP:a:problem:klamra łukowa	!	!
2ryy	24dd\LL	.	8B/L
.	24g#X\	.	.
.	24a\	.	.
.	24b\	.	8G#X/J
.	24cc#\	.	.
.	24dd\JJ	.	.
*	*	*	*tuplet
!	!	!	!LO:TUP:b
.	8cc#\L	.	24A/LL
.	.	.	24a/
.	.	.	24b/
.	8a\J	.	24cc#/
.	.	.	24dd/
.	.	.	24ee/JJ
=13	=13	=13	=13
!	!	!	!LO:TUP:a
2ryy	8b/L	.	24dd\LL
.	.	.	24g#X\
.	.	.	24a\
.	8e/J	.	24b\
.	.	.	24cc#\
.	.	.	24dd\JJ
.	16.a\LL	.	16.cc#\LL
.	32a\JJk	.	32cc#\JJk
*	*	*	*Xtuplet
!	!LO:TUP:a:problem:klamra łukowa	!	!LO:TUP:a:problem:klamra łukowa
.	24cc#\LL	.	24ee\LL
.	24b\	.	24dd\
.	24a\JJ	.	24cc#\JJ
=14	=14	=14	=14
*	*	*	*^
2ryy	8a/L	.	8cc#/	8e\
.	8g#X/J	.	4b/	4e\
.	16g#/LL	.	.	.
.	(<16e/	.	.	.
.	16f#/	.	8dd\	8ryy
.	16g#/JJ)	.	.	.
!	!	!	!LO:LB:g=original	!LO:LB:g=original
*	*	*	*v	*v
=15	=15	=15	=15
2ryy	8a/L	.	8cc#\L
!	!	!	!LO:N:vis=32.
.	8d/J	.	16.ff#\L
.	.	.	32dd\JJk
!	!LO:N:vis=8.	!	!
.	8e/L	.	8cc#\L
!	!LO:N:vis=16	!	!
.	16.e/L	.	8b\J
.	32d/JJk	.	.
=16	=16	=16	=16
!	!	!	!LO:TX:b:t=|:problem
2ryy	8c#/L	.	8a/
.	8e/	.	24e/LL
.	.	.	(<24g#X/
.	.	.	24b/JJ)
.	8c#/	.	(<24e/LL
.	.	.	24a/
!	!	!	!LO:TX:b:t=|:problem
.	.	.	24cc#/JJ)
.	8G#X/J	.	(<24e/LL
.	.	.	24b/
!	!	!	!LO:TX:b:t=|:problem
.	.	.	24dd/JJ)
=17	=17	=17	=17
2ryy	8A/L	.	8cc#\
.	8e/	.	(<24e/LL
.	.	.	24g#X/
!	!	!	!LO:TX:b:t=|:problem
.	.	.	24b/JJ)
.	8c#/	.	(<24e/LL
.	.	.	24a/
!	!	!	!LO:TX:b:t=|:problem
.	.	.	24cc#/JJ)
.	8G#X/J	.	(<24e/LL
.	.	.	24b/
!	!	!	!LO:TX:b:t=|:problem
.	.	.	24dd/JJ)
=18	=18	=18	=18
2ryy	8A/L	.	16.cc#\LL
.	.	.	32ee\K
.	.	.	8qqee/
.	8A/	.	16.dd\
.	.	.	32cc#\JJk
.	.	.	8qqdd/
.	8d/	.	16.cc#\LL
.	.	.	32b\K
.	8d#X/J	.	16.b\
.	.	.	32a\JJk
!	!LO:LB:g=original	!	!
=19	=19	=19	=19
!	!LO:TX:a:t=|:problem	!	!
2ryy	8e/	.	8g#X/L
!	!LO:TUP:a:problem:klamra łukowa	!	!
.	24e/LL	.	8e/
.	24g#X/	.	.
.	24b/JJ	.	.
!	!LO:TUP:a:problem:klamra łukowa	!	!
.	24e/LL	.	8c#/
.	24a/	.	.
.	24cc#/JJ	.	.
.	24e/LL	.	8G#X/J
.	24b/	.	.
.	24dd/JJ	.	.
=20	=20	=20	=20
2ryy	8cc#\	.	8A/L
!	!LO:TUP:a:problem:klamra łukowa	!	!
.	24e/LL	.	8e/
.	24g#X/	.	.
.	24b/JJ	.	.
.	24e/LL	.	8c#/
.	24a/	.	.
.	24cc#/JJ	.	.
!	!LO:TUP:a:problem:klamra łukowa	!	!
.	24e/LL	.	8G#X/J
.	24b/	.	.
.	24dd/JJ	.	.
=21	=21	=21	=21
2ryy	16.cc#\LL	.	8A/L
.	32ff#\K	.	.
.	16.ee\	.	8c#/
.	32dd\JJk	.	.
!	!LO:N:vis=16	!	!
.	8qdd/	.	.
.	16.cc#\LL	.	8e/
.	32b\K	.	.
.	16.a\	.	8e/J
.	32g#X\JJk	.	.
!	!	!	!LO:LB:g=original
=	=	=	=
4.ryy	4A/ 4e 4a	.	4A/
.	8r	.	8r
=22:|!|:	=22:|!|:;>	=22:|!|:	=22:|!|:;>
*>B	*>B	*	*>B
!	!LO:TX:t=P:problem:brakująca nuta/pauza	!	!
8ryy	8ryy	.	8ee\
=23	=23	=23	=23
2ryy	8A/L	.	(>32cc#\KLL
.	.	.	16.a\)
.	8B/	.	(>16.dd\
.	.	.	32b\JJk)
.	8c#/	.	(>8ee\L
.	8d/J	.	8ff#\J)
=24	=24	=24	=24
2ryy	8c#/L	.	(>16.ee\LL
.	.	.	32g#X\JJk)
.	.	.	8qqg#/
.	16.c#/L	.	4a/
.	32B/JJk	.	.
!!mixed beam:problem
!	!LO:TX:t=P:problem:mixed beam	!	!
.	8c#/L	.	.
.	8cc#\J	.	8ee\
=25	=25	=25	=25
2ryy	8b/L	.	8dd/
!!mixed beam:problem
!	!	!	!LO:TX:t=P:problem:mixed beam
.	8e/	.	16dd\LL
.	.	.	32e/L
.	.	.	32f#/JJJ
.	8g#X/	.	16e'</LL
.	.	.	16g#X'</
.	8e/J	.	16b'</
.	.	.	16dd'</JJ
!	!LO:LB:g=original	!	!
=26	=26	=26	=26
2ryy	8a/L	.	8cc#\
!!mixed beam:problem
!	!	!	!LO:TX:t=P:problem:mixed beam
.	8A/J	.	16cc#\LL
.	.	.	32e/L
.	.	.	32f#/JJJ
!!mixed beam:problem
!	!LO:TX:t=P:problem:mixed beam	!	!LO:TX:t=P:problem:mixed beam
.	8c#/L	.	8e/L
.	8ee\J	.	8cc#\J
=27	=27	=27	=27
!!mixed beam:problem
!	!	!	!LO:TX:t=P:problem:mixed beam
2ryy	8dd\	.	8b\L
!!mixed beam:problem
!	!LO:TX:t=P:problem:mixed beam	!	!
.	16dd\LL	.	8e/J
.	32e/L	.	.
.	32f#/JJJ	.	.
!	!LO:TX:b:t=|:problem	!	!
.	16e/LL	.	8g#X/L
!	!LO:TX:b:t=|:problem	!	!
.	16g#X/	.	.
!	!LO:TX:b:t=|:problem	!	!
.	16b/	.	8e/J
!	!LO:TX:b:t=|:problem	!	!
.	16dd/JJ	.	.
=28	=28	=28	=28
!	!LO:TX:a:t=|:problem	!	!
2ryy	8cc#\	.	8a/L
!!mixed beam:problem
!	!LO:TX:t=P:problem:mixed beam	!	!
.	16cc#\LL	.	8A/J
.	32e/L	.	.
.	32f#/JJJ	.	.
!!mixed beam:problem
!	!	!	!LO:TX:t=P:problem:mixed beam
.	8e/L	.	8c#/L
.	8A/J	.	8cc#\J
=29	=29	=29	=29
.	.	.	8qqcc#/
2ryy	8B/L	.	16b\LL
.	.	.	32a\L
.	.	.	32b\JJJ
.	8B/	.	16r
.	.	.	16a/
.	.	.	8qqa/
.	8B#X/	.	16g#X/LL
.	.	.	32f#/L
.	.	.	32g#/JJJ
!	!	!	!LO:LB:g=original
.	8B#/J	.	16r
.	.	.	16f#/
=30	=30	=30	=30
2ryy	8c#/L	.	16e#X/LL
.	.	.	16g#X/JJ
.	.	.	(<16qqdd/LL
.	.	.	16qqcc#/
.	.	.	16qqb/JJ)
.	8c#/	.	8cc#\L
.	.	.	16qqdd/LL
.	.	.	16qqcc#/
!	!	!	!LO:TX:t=P:problem:kreska
.	.	.	16qqb/JJ
.	8e#X/	.	8cc#\J
.	8c#/J	.	24e#X/LL
.	.	.	24f#/
.	.	.	24g#X/JJ
=31	=31	=31	=31
2ryy	8f#/L	.	16f#/LL
.	.	.	16a/J
.	8f#/	.	8cc#/J
.	8f#/J	.	16r
!	!	!	!LO:N:vis=16
.	.	.	(<32cc#'</LLL
!	!	!	!LO:N:vis=16
.	.	.	32b'</
!	!	!	!LO:N:vis=16
.	8r	.	32a'</
!	!	!	!LO:N:vis=16
.	.	.	32g'</
!	!	!	!LO:N:vis=16
.	.	.	32f#'</
!	!	!	!LO:N:vis=16
.	.	.	32e'</JJJ)
=32	=32	=32	=32
2ryy	8r	.	16d#X/LL
.	.	.	16f#/JJ
.	.	.	16qqcc#/LL
.	.	.	16qqb/
.	.	.	16qqa/JJ
.	8B/L	.	8b\L
.	.	.	16qqcc#/LL
.	.	.	16qqb/
.	.	.	16qqa/JJ
.	8d#X/	.	8b\J
.	8B/J	.	24d#X/LL
.	.	.	(<24e/
.	.	.	24f#/JJ)
=33	=33	=33	=33
2ryy	8e/L	.	16e/LL
.	.	.	16g#X/J
.	8e/	.	8b/J
.	8e/J	.	16r
!	!	!	!LO:N:vis=16
.	.	.	32b/LLL
!	!	!	!LO:N:vis=16
.	.	.	32a/
!	!	!	!LO:N:vis=16
.	8r	.	32g#/
!	!	!	!LO:N:vis=16
.	.	.	32f#/
!	!	!	!LO:N:vis=16
.	.	.	32e/
!	!	!	!LO:N:vis=16
.	.	.	32d/JJJ
=34	=34	=34	=34
!!mixed beam:problem
!	!	!	!LO:TX:t=P:problem:mixed beam
2ryy	(<16A/LL	.	8c#/L
.	16a/)	.	.
.	(<16cc#/	.	(>8ee\
.	16a/JJ)	.	.
.	(>16dd\LL	.	8ff#\
.	16a\)	.	.
.	(>16ee\	.	8ggn\J)
.	16a\JJ)	.	.
!	!	!	!LO:PB:g=original
=35	=35	=35	=35
2ryy	(<16A/LL	.	8r
.	16a/)	.	.
.	(<16dd/	.	(>8ff#\L
.	16a/JJ)	.	.
.	(>16ee\LL	.	8ggn\
.	16a\)	.	.
.	(>16ff#\	.	8aa\J)
.	16a\JJ)	.	.
=36	=36	=36	=36
2ryy	(<16A/LL	.	8r
.	16a/)	.	.
.	(<16cc#/	.	8ee\L
.	16a/JJ)	.	.
.	(>16dd\LL	.	8ff#\
.	16a\)	.	.
.	(>16ee\	.	8gg\J
.	16a\JJ)	.	.
!	!LO:LB:g=original	!	!
=37	=37	=37	=37
*	*	*	*^
2ryy	8dd\L	.	8ff#/L	8a\L
.	8cc#\J	.	8ee'>/J	8a\J
.	4r	.	8r	4ryy
.	.	.	8a/	.
*	*	*	*v	*v
=38	=38	=38	=38
2ryy	8d/L	.	16.f#/LL
.	.	.	32d/K
!	!	!LO:DY:a:B:t=p&colon;	!
.	8e/	p	16.g/
.	.	.	32e/JJk
.	8f#/	.	16a\LL
.	.	.	16dd\
.	8e/J	.	16cc#\
.	.	.	16b\JJ
=39	=39	=39	=39
.	.	.	8qb/
2ryy	8c#/L	.	16.a\LL
.	.	.	32g#X\JK
.	16.c#/L	.	8a\J
.	32B/JJk	.	.
.	8c#/L	.	24r
.	.	.	24a/LL
.	.	.	24gn/
.	8d/J	.	24f#/
.	.	.	24e/
.	.	.	24d/JJ
=40	=40	=40	=40
.	.	.	8qqcc#/
2ryy	8g/L	.	16b\LL
.	.	.	32a\L
.	.	.	32b\JJJ
.	8g/	.	16r
.	.	.	16dd\
.	.	.	8qdd/
.	8a/	.	16cc#\LL
.	.	.	32b\L
.	.	.	32cc#\JJJ
.	8g/J	.	16r
.	.	.	16ee\
=41	=41	=41	=41
.	.	.	8qee/
2ryy	8f#/L	.	16dd\LL
.	.	.	32cc#\L
.	.	.	32dd\JJJ
.	8d/J	.	8d/L
!	!LO:TUP:b:problem:klamra łukowa	!	!
.	24r	.	8f#/
.	24a/LL	.	.
.	24g/	.	.
.	24f#/	.	8d/J
.	24e/	.	.
.	24d/JJ	.	.
=42	=42	=42	=42
.	8qcc#/	.	.
2ryy	32b\LLL	.	8g/L
.	32a\J	.	.
.	16b\JJ	.	.
.	16r	.	8g/
.	16dd\	.	.
.	8qdd/	.	.
.	(>32cc#\LLL	.	8a/
.	32b\J)	.	.
.	16cc#\JJ	.	.
.	16r	.	8g/J
.	16ee\	.	.
!	!	!	!LO:LB:g=original
=43	=43	=43	=43
!!mixed beam:problem
!	!	!	!LO:TX:t=P:problem:mixed beam
2ryy	16dd\LL	.	16f#/LL
.	16ff#\J	.	16aa\J
.	8ff#\J	.	8aa\J
.	(>16ff#\LL	.	(>16aa\LL
.	16dd\)	.	16ff#\)
.	(>16ee\	.	(>16gg\
.	16cc#\JJ)	.	16ee\JJ)
=44	=44	=44	=44
!!mixed beam:problem
!	!LO:TX:t=P:problem:mixed beam	!	!
2ryy	16dd\LL	.	16ff#\LL
.	16f#/J	.	16a\J
.	8f#/J	.	8a\J
.	(<16f#/LL	.	16a/LL
.	16d/)	.	16f#/
.	(<16e/	.	16g/
.	16c#/JJ)	.	16e/JJ
=45	=45	=45	=45
2ryy	8d/L	.	8A/ 8e 8a
.	8a/J	.	24a\LL
.	.	.	24cc#\
.	.	.	24ee\JJ
.	8f#/L	.	24a\LL
.	.	.	24dd\
.	.	.	24ff#\JJ
.	8c#/J	.	24a\LL
.	.	.	24ee\
.	.	.	24gg\JJ
=46	=46	=46	=46
!	!	!	!LO:TX:a:t=|:problem
2ryy	8d/L	.	8ff#\
.	8a/J	.	24a\LL
.	.	.	24cc#\
.	.	.	24ee\JJ
.	8f#/L	.	24a\LL
.	.	.	24dd\
.	.	.	24ff#\JJ
.	8c#/J	.	24a\LL
.	.	.	24ee\
.	.	.	24gg\JJ
=47	=47	=47	=47
2ryy	8d/L	.	16.ff#\LL
.	.	.	32aa\K
.	8d/	.	16.gg\
.	.	.	32ff#\JJk
!	!	!	!LO:N:vis=16
.	8g/	.	16.ff#\LL
.	.	.	32ee\K
.	8g#X/J	.	16.ee\
.	.	.	32dd\JJk
!	!LO:LB:g=original	!	!
=48	=48	=48	=48
!!mixed beam:problem
!	!	!	!LO:TX:t=P:problem:mixed beam
2ryy	8a/	.	8cc#\L
!	!LO:TUP:a:problem:klamra łukowa	!	!
.	24a\LL	.	8a\
.	24cc#\	.	.
!	!LO:TX:a:t=|:problem	!	!
!	!LO:TUP:a:problem:klamra łukowa	!	!
.	24ee\JJ	.	.
.	24a\LL	.	8f#/
.	24dd\	.	.
!	!LO:TX:a:t=|:problem	!	!
.	24ff#\JJ	.	.
!	!LO:TUP:a:problem:klamra łukowa	!	!
.	24a\LL	.	8c#/J
.	24ee\	.	.
!	!LO:TX:a:t=|:problem	!	!
.	24gg\JJ	.	.
=49	=49	=49	=49
2ryy	8ff#\	.	8d/L
!	!LO:TUP:a:problem:klamra łukowa	!	!
.	24a\LL	.	8a/
.	24cc#\	.	.
.	24ee\JJ	.	.
.	24a\LL	.	8f#/
.	24dd\	.	.
.	24ff#\JJ	.	.
!	!LO:TUP:a:problem:klamra łukowa	!	!
.	24a\LL	.	8c#/J
.	24ee\	.	.
.	24gg\JJ	.	.
=50	=50	=50	=50
2ryy	16.ff#/LL	.	8d/L
.	32dd/K	.	.
.	16.b/	.	8G/J
.	32g/JJk	.	.
.	8qqg/	.	.
.	16.f#/LL	.	8A/L
.	32e/K	.	.
.	16.d/	.	8A/J
.	32c#/JJk	.	.
=51	=51	=51	=51
2ryy	4d/ 4a 4ff#	.	4d/ 4a 4ff#
.	4r	.	4r
=:|!	=:|!;>	=:|!	=:|!;>
*-	*-	*-	*-
!!!system-decoration: [(g1)]
!!!AIN: 1 empty 2 violn
!!!ENC: Andrzej Borzym
!!!END: 2021-03-10
!!!EED: Jędrzej Mróz
!!!ESR: 2021-10-29
!!!RDF**kern: > = above
!!!RDF**kern: < = below
